X: 5
T: Martin Wynne's
C: Martin Wynne
Z: UPipes & harp
S: https://thesession.org/tunes/450#setting48537
R: reel
M: 4/4
L: 1/8
K: Gmaj
|:B2 AG EDBc|DGBA GBAG|E2 BA GABD|(3EFG AB ce d2|
BGAG EDBc|DGBA GBAG|E2 BA GABD|(3EFG Ac B G3:|
|:BddB cedc|BGDG E2 AG|(3Bcd dB dega|bagb a2 ga|
b g3 afgf|eBdB A2 (3Bcd|eBdB cBAG|(3EFG Ac BG~G2:|

%-------------------- TUNE SEPARATOR --------------------%

